X:1
T:Title
%%score { ( 1 3 ) | 2 }
L:1/8
M:4/4
K:D
V:1 treble nm="Grand Piano"
V:3 treble 
V:2 bass 
V:1
 z4 z2[Q:1/4=100] [DF]>[EG] | [FA]2 [Fd]2 [Fd]2 [Ac][GB] | [FA]2 [FA]2 [DF]2 [FA]>[GB] | %3
 [FA]2 [EG]2 [EG]2 [CA]2 |[M:3/4] [DF]6 |[M:1/4] [DF]>[EG] |[M:4/4] [FA]2 [Fd]2 [Fd]2 [FA][FA] | %7
[M:9/8] B2 d- d d2- dDE |[M:4/4] F2 A2 [CA]2 EF |[M:3/4] D6 |[M:1/4] [FA]>[FA] | %11
[M:4/4] B2 B2 d2 cB | [FA]2 [FA]2 [DF]2 [FA][FA] | B2 BB [^GB]2 [Gd]2 |[M:3/4] c6 |[M:1/4] B>A | %16
[M:4/4] [Fd]2 [Fd]2 [Fd]2 [FA][FA] |[M:9/8] B2 B- B d2- dDE |[M:4/4] F2 A2 [CA]2 EF |[M:3/4] D6 |] %20
V:2
 z4 z2 [D,A,]>[D,A,] | [D,D]2 [D,A,]2 [D,A,]2 [D,A,][D,D] | [D,D]2 [D,D]2 [D,A,]2 [D,A,]>[D,A,] | %3
 [A,,A,]2 [A,,A,]2 [A,,A,]2 [A,,A,]2 |[M:3/4] [D,A,]6 |[M:1/4] [D,A,]>[D,A,] | %6
[M:4/4] [D,D]2 [D,A,]2 [D,A,]2 [D,D][D,D] | %7
[M:9/8][K:treble] [G,DG]2 [G,B,D]- [G,B,D] [G,B,D]2- [G,B,D][K:bass][F,A,][E,A,C] | %8
[M:4/4] [D,A,D]2 [D,F,D]2 [A,,E,]2 [A,,G,]2 |[M:3/4] [D,F,]6 |[M:1/4] [D,D]>[D,D] | %11
[M:4/4][K:treble] [G,DG]2 [G,DG]2 [G,B,G]2 [G,DG][G,DG] | [D,D]2 [D,D]2 [D,A,]2 [D,D][D,D] | %13
 [G,DG]2 [G,DG][G,DG][K:bass] [E,E]2 [E,E]2 |[M:3/4][K:treble] [A,EG]6 |[M:1/4] [A,CG]>[A,CG] | %16
[M:4/4][K:bass] [D,A,]2 [D,A,]2 [D,A,]2 [D,D][D,D] | %17
[M:9/8][K:treble] [G,DG]2 [G,DG]- [G,DG] [G,B,D]2- [G,B,D][K:bass][F,A,][E,A,C] | %18
[M:4/4] [D,A,D]2 [D,F,D]2 [A,,E,]2 [A,,G,]2 |[M:3/4] [D,F,]6 |] %20
V:3
 x8 | x8 | x8 | x8 |[M:3/4] x6 |[M:1/4] x2 |[M:4/4] x8 |[M:9/8] x9 |[M:4/4] z4 z2 C2 |[M:3/4] x6 | %10
[M:1/4] x2 |[M:4/4] x8 | x8 | x8 |[M:3/4] x6 |[M:1/4] x2 |[M:4/4] x8 |[M:9/8] x9 | %18
[M:4/4] z4 z2 C2 |[M:3/4] x6 |] %20

